svgs/light/chalkboard.svg

<svg xmlns="http://www.w3.org/2000/svg" viewBox="0 0 576 512"><!--! Font Awesome Pro 6.6.0 by @fontawesome - https://fontawesome.com License - https://fontawesome.com/license (Commercial License) Copyright 2024 Fonticons, Inc. --><path d="M64 88c0-13.3 10.7-24 24-24l400 0c13.3 0 24 10.7 24 24l0 328 32 0 0-328c0-30.9-25.1-56-56-56L88 32C57.1 32 32 57.1 32 88l0 328 32 0L64 88zM224 400l0 48L16 448c-8.8 0-16 7.2-16 16s7.2 16 16 16l544 0c8.8 0 16-7.2 16-16s-7.2-16-16-16l-144 0 0-48c0-26.5-21.5-48-48-48l-96 0c-26.5 0-48 21.5-48 48zm48-16l96 0c8.8 0 16 7.2 16 16l0 40-128 0 0-40c0-8.8 7.2-16 16-16z"/></svg>

<svg xmlns="http://www.w3.org/2000/svg" viewBox="0 0 576 512"><!--! Font Awesome Pro 6.4.0 by @fontawesome - https://fontawesome.com License - https://fontawesome.com/license (Commercial License) Copyright 2023 Fonticons, Inc. --><path d="M64 88c0-13.3 10.7-24 24-24H488c13.3 0 24 10.7 24 24V416h32V88c0-30.9-25.1-56-56-56H88C57.1 32 32 57.1 32 88V416H64V88zM224 400v48H16c-8.8 0-16 7.2-16 16s7.2 16 16 16H560c8.8 0 16-7.2 16-16s-7.2-16-16-16H416V400c0-26.5-21.5-48-48-48H272c-26.5 0-48 21.5-48 48zm48-16h96c8.8 0 16 7.2 16 16v40H256V400c0-8.8 7.2-16 16-16z"/></svg>
